assets/svg/1F4D6.svg

<svg xmlns="http://www.w3.org/2000/svg" viewBox="0 0 64 64" enable-background="new 0 0 64 64"><path fill="#bb324a" d="m31.928 48.656c0 1.801-1.705 3.26-3.81 3.26h-24.304c-2.106 0-3.814-1.459-3.814-3.26v-29.366c0-1.801 1.708-3.257 3.814-3.257h24.304c2.105 0 3.81 1.457 3.81 3.257v29.366"/><path fill="#de374b" d="m31.928 46.36c0 1.802-1.705 3.261-3.81 3.261h-24.304c-2.106 0-3.814-1.459-3.814-3.261v-29.364c0-1.799 1.708-3.258 3.814-3.258h24.304c2.105 0 3.81 1.459 3.81 3.258v29.364"/><path fill="#bb324a" d="m31.622 48.656c0 1.801 1.707 3.26 3.812 3.26h24.306c2.101 0 3.809-1.459 3.809-3.26v-29.366c0-1.801-1.708-3.257-3.809-3.257h-24.304c-2.105 0-3.813 1.457-3.813 3.257l-.0001 29.366 0 0"/><path fill="#de374b" d="m31.622 46.36c0 1.802 1.707 3.261 3.812 3.261h24.306c2.101 0 3.809-1.459 3.809-3.261v-29.364c0-1.799-1.708-3.258-3.809-3.258h-24.304c-2.105 0-3.813 1.459-3.813 3.258l-.0001 29.364 0 0"/><path fill="#d0d1d2" d="m32.26 45.922c0 1.801-1.608 3.26-3.594 3.26h-22.894c-1.982 0-3.588-1.459-3.588-3.26v-29.365c0-1.803 1.606-3.259 3.588-3.259h22.895c1.986 0 3.594 1.457 3.594 3.259v29.365l0 0"/><path fill="#e7e6e6" d="m32.26 43.624c0 1.803-1.608 3.26-3.594 3.26h-22.894c-1.982 0-3.588-1.457-3.588-3.26v-29.366c0-1.799 1.606-3.258 3.588-3.258h22.895c1.986 0 3.594 1.459 3.594 3.258v29.366l0 0"/><g fill="#35494d"><path d="m6.706 18.893c6.792 0 13.581 0 20.369 0 1.369 0 1.369-1.926 0-1.926-6.788 0-13.577 0-20.369 0-1.368 0-1.368 1.926 0 1.926l0 0"/><path d="m6.706 22.8c6.792 0 13.581 0 20.369 0 1.369 0 1.369-1.924 0-1.924-6.788 0-13.577 0-20.369 0-1.368 0-1.368 1.924 0 1.924l0 0"/><path d="m6.706 26.797c6.792 0 13.581 0 20.369 0 1.369 0 1.369-1.926 0-1.926-6.788 0-13.577 0-20.369 0-1.368 0-1.368 1.926 0 1.926l0 0"/><path d="m6.706 30.707c6.792 0 13.581 0 20.369 0 1.369 0 1.369-1.926 0-1.926-6.788 0-13.577 0-20.369 0-1.368 0-1.368 1.926 0 1.926l0 0"/><path d="m6.706 34.751c6.792 0 13.581 0 20.369 0 1.369 0 1.369-1.926 0-1.926-6.788 0-13.577 0-20.369 0-1.368.0001-1.368 1.926 0 1.926l0 0"/><path d="m6.706 39.32c6.792 0 13.581 0 20.369 0 1.369 0 1.369-1.926 0-1.926-6.788 0-13.577 0-20.369 0-1.368.0001-1.368 1.926 0 1.926l0 0"/></g><path fill="#d0d1d2" d="m62.33 46.54c0 1.801-1.607 3.259-3.592 3.259h-22.894c-1.979 0-3.589-1.458-3.589-3.259v-29.367c0-1.799 1.61-3.257 3.589-3.257h22.894c1.984 0 3.592 1.458 3.592 3.257v29.367"/><path fill="#e7e6e6" d="m62.33 44.24c0 1.799-1.607 3.258-3.592 3.258h-22.894c-1.979 0-3.589-1.459-3.589-3.258v-29.37c0-1.798 1.61-3.255 3.589-3.255h22.894c1.984 0 3.592 1.457 3.592 3.255v29.37"/><g fill="#35494d"><path d="m36.779 19.509c6.793 0 13.584 0 20.369 0 1.369 0 1.369-1.926 0-1.926-6.785 0-13.576 0-20.369 0-1.369 0-1.369 1.926 0 1.926l0 0"/><path d="m36.779 23.42c6.793 0 13.584 0 20.369 0 1.369 0 1.369-1.924 0-1.924-6.785 0-13.576 0-20.369 0-1.369.0001-1.369 1.924 0 1.924l0 0"/><path d="m36.779 27.416c6.793 0 13.584 0 20.369 0 1.369 0 1.369-1.926 0-1.926-6.785 0-13.576 0-20.369 0-1.369-.0001-1.369 1.926 0 1.926l0 0"/><path d="m36.779 31.33c6.793 0 13.584 0 20.369 0 1.369 0 1.369-1.928 0-1.928-6.785 0-13.576 0-20.369 0-1.369 0-1.369 1.928 0 1.928l0 0"/><path d="m36.779 35.37c6.793 0 13.584 0 20.369 0 1.369 0 1.369-1.927 0-1.927-6.785 0-13.576 0-20.369 0-1.369 0-1.369 1.927 0 1.927l0 0"/><path d="m44.11 39.936c4.465 0 8.931 0 13.393 0 .9 0 .9-1.927 0-1.927-4.462 0-8.928 0-13.393 0-.899 0-.899 1.927 0 1.927l0 0"/></g></svg>

<?xml version="1.0" encoding="utf-8"?>
<!-- Generator: Adobe Illustrator 16.0.0, SVG Export Plug-In . SVG Version: 6.00 Build 0)  -->
<!DOCTYPE svg PUBLIC "-//W3C//DTD SVG 1.1//EN" "http://www.w3.org/Graphics/SVG/1.1/DTD/svg11.dtd">
<svg version="1.1" id="Layer_1" xmlns="http://www.w3.org/2000/svg" xmlns:xlink="http://www.w3.org/1999/xlink" x="0px" y="0px"
	 width="64px" height="64px" viewBox="0 0 64 64" enable-background="new 0 0 64 64" xml:space="preserve">
<g>
	<g>
		<path fill="#BB324A" d="M31.928,48.656c0,1.801-1.705,3.26-3.81,3.26H3.814C1.708,51.916,0,50.457,0,48.656V19.29
			c0-1.801,1.708-3.257,3.814-3.257h24.304c2.105,0,3.81,1.457,3.81,3.257V48.656z"/>
		<path fill="#DE374B" d="M31.928,46.357c0,1.802-1.705,3.261-3.81,3.261H3.814C1.708,49.618,0,48.159,0,46.357V16.993
			c0-1.799,1.708-3.258,3.814-3.258h24.304c2.105,0,3.81,1.459,3.81,3.258V46.357z"/>
	</g>
	<g>
		<path fill="#BB324A" d="M31.622,48.656c0,1.801,1.707,3.26,3.812,3.26H59.74c2.101,0,3.809-1.459,3.809-3.26V19.29
			c0-1.801-1.708-3.257-3.809-3.257H35.436c-2.105,0-3.813,1.457-3.813,3.257L31.622,48.656L31.622,48.656z"/>
		<path fill="#DE374B" d="M31.622,46.357c0,1.802,1.707,3.261,3.812,3.261H59.74c2.101,0,3.809-1.459,3.809-3.261V16.993
			c0-1.799-1.708-3.258-3.809-3.258H35.436c-2.105,0-3.813,1.459-3.813,3.258L31.622,46.357L31.622,46.357z"/>
	</g>
	<path fill="#D0D1D2" d="M32.256,45.922c0,1.801-1.608,3.26-3.594,3.26H5.768c-1.982,0-3.588-1.459-3.588-3.26V16.557
		c0-1.803,1.606-3.259,3.588-3.259h22.895c1.986,0,3.594,1.457,3.594,3.259L32.256,45.922L32.256,45.922z"/>
	<path fill="#E7E6E6" d="M32.256,43.624c0,1.803-1.608,3.26-3.594,3.26H5.768c-1.982,0-3.588-1.457-3.588-3.26V14.258
		C2.18,12.459,3.786,11,5.768,11h22.895c1.986,0,3.594,1.459,3.594,3.258L32.256,43.624L32.256,43.624z"/>
	<g>
		<path fill="#35494D" d="M6.706,18.893c6.792,0,13.581,0,20.369,0c1.369,0,1.369-1.926,0-1.926c-6.788,0-13.577,0-20.369,0
			C5.338,16.967,5.338,18.893,6.706,18.893L6.706,18.893z"/>
	</g>
	<g>
		<path fill="#35494D" d="M6.706,22.8c6.792,0,13.581,0,20.369,0c1.369,0,1.369-1.924,0-1.924c-6.788,0-13.577,0-20.369,0
			C5.338,20.876,5.338,22.8,6.706,22.8L6.706,22.8z"/>
	</g>
	<g>
		<path fill="#35494D" d="M6.706,26.797c6.792,0,13.581,0,20.369,0c1.369,0,1.369-1.926,0-1.926c-6.788,0-13.577,0-20.369,0
			C5.338,24.871,5.338,26.797,6.706,26.797L6.706,26.797z"/>
	</g>
	<g>
		<path fill="#35494D" d="M6.706,30.707c6.792,0,13.581,0,20.369,0c1.369,0,1.369-1.926,0-1.926c-6.788,0-13.577,0-20.369,0
			C5.338,28.781,5.338,30.707,6.706,30.707L6.706,30.707z"/>
	</g>
	<g>
		<path fill="#35494D" d="M6.706,34.751c6.792,0,13.581,0,20.369,0c1.369,0,1.369-1.926,0-1.926c-6.788,0-13.577,0-20.369,0
			C5.338,32.826,5.338,34.751,6.706,34.751L6.706,34.751z"/>
	</g>
	<g>
		<path fill="#35494D" d="M6.706,39.318c6.792,0,13.581,0,20.369,0c1.369,0,1.369-1.926,0-1.926c-6.788,0-13.577,0-20.369,0
			C5.338,37.393,5.338,39.318,6.706,39.318L6.706,39.318z"/>
	</g>
	<path fill="#D0D1D2" d="M62.332,46.54c0,1.801-1.607,3.259-3.592,3.259H35.846c-1.979,0-3.589-1.458-3.589-3.259V17.173
		c0-1.799,1.61-3.257,3.589-3.257H58.74c1.984,0,3.592,1.458,3.592,3.257V46.54z"/>
	<path fill="#E7E6E6" d="M62.332,44.244c0,1.799-1.607,3.258-3.592,3.258H35.846c-1.979,0-3.589-1.459-3.589-3.258v-29.37
		c0-1.798,1.61-3.255,3.589-3.255H58.74c1.984,0,3.592,1.457,3.592,3.255V44.244z"/>
	<g>
		<path fill="#35494D" d="M36.779,19.509c6.793,0,13.584,0,20.369,0c1.369,0,1.369-1.926,0-1.926c-6.785,0-13.576,0-20.369,0
			C35.41,17.583,35.41,19.509,36.779,19.509L36.779,19.509z"/>
	</g>
	<g>
		<path fill="#35494D" d="M36.779,23.42c6.793,0,13.584,0,20.369,0c1.369,0,1.369-1.924,0-1.924c-6.785,0-13.576,0-20.369,0
			C35.41,21.497,35.41,23.42,36.779,23.42L36.779,23.42z"/>
	</g>
	<g>
		<path fill="#35494D" d="M36.779,27.416c6.793,0,13.584,0,20.369,0c1.369,0,1.369-1.926,0-1.926c-6.785,0-13.576,0-20.369,0
			C35.41,25.489,35.41,27.416,36.779,27.416L36.779,27.416z"/>
	</g>
	<g>
		<path fill="#35494D" d="M36.779,31.327c6.793,0,13.584,0,20.369,0c1.369,0,1.369-1.928,0-1.928c-6.785,0-13.576,0-20.369,0
			C35.41,29.399,35.41,31.327,36.779,31.327L36.779,31.327z"/>
	</g>
	<g>
		<path fill="#35494D" d="M36.779,35.368c6.793,0,13.584,0,20.369,0c1.369,0,1.369-1.927,0-1.927c-6.785,0-13.576,0-20.369,0
			C35.41,33.441,35.41,35.368,36.779,35.368L36.779,35.368z"/>
	</g>
	<g>
		<path fill="#35494D" d="M44.107,39.936c4.465,0,8.931,0,13.393,0c0.9,0,0.9-1.927,0-1.927c-4.462,0-8.928,0-13.393,0
			C43.208,38.009,43.208,39.936,44.107,39.936L44.107,39.936z"/>
	</g>
</g>
</svg>
